img/guarantee/icon2.svg

<svg width="57" height="57" viewBox="0 0 57 57" fill="none" xmlns="http://www.w3.org/2000/svg">
<circle cx="28.5" cy="28.5" r="28" stroke="#009CA1"/>
<path fill-rule="evenodd" clip-rule="evenodd" d="M19.4225 14.0666C19.0578 14.1861 18.6283 14.4982 18.3985 14.8106C18.1167 15.1938 18.0178 15.5925 18.0178 16.345V16.9921H16.5818C15.3256 16.9921 15.0959 17.0077 14.7471 17.1165C14.0058 17.348 13.3558 17.9979 13.1244 18.7393C13.0024 19.1301 13 19.3425 13 29.5366C13 39.7307 13.0024 39.9432 13.1244 40.334C13.3558 41.0754 14.0058 41.7253 14.7471 41.9568C15.1351 42.0778 15.3418 42.0811 22.4492 42.0811H29.7526L29.9066 41.9272C30.0935 41.7403 30.1076 41.4632 29.9407 41.257L29.8207 41.1089L22.461 41.0776C15.4338 41.0477 15.0913 41.0409 14.8817 40.9293C14.5744 40.7657 14.3287 40.5244 14.1703 40.2308L14.0349 39.9799L14.0017 24.017H42.1033V32.7412L42.2573 32.8951C42.4609 33.0988 42.7492 33.0988 42.9528 32.8951L43.1068 32.7412V25.9396C43.1068 19.3325 43.1033 19.1265 42.9825 18.7393C42.751 17.9979 42.1011 17.348 41.3597 17.1165C41.0111 17.0078 40.7813 16.9921 39.5315 16.9921H38.1019L38.0792 16.2238C38.0528 15.3306 37.9414 15.0223 37.4774 14.5582C37.0673 14.1481 36.7242 14.0142 36.0819 14.0134C35.4468 14.0127 35.0856 14.159 34.6516 14.5931C34.2173 15.0274 34.1145 15.3238 34.0861 16.2238L34.0619 16.9921H30.0735L30.0508 16.2238C30.0243 15.3306 29.913 15.0223 29.4489 14.5582C29.0388 14.1481 28.6957 14.0142 28.0534 14.0134C27.4183 14.0127 27.0571 14.159 26.6231 14.5931C26.1888 15.0274 26.0861 15.3238 26.0576 16.2238L26.0334 16.9921H22.045L22.0223 16.2238C22.0028 15.5648 21.9778 15.411 21.8466 15.1435C21.6494 14.7413 21.226 14.32 20.8526 14.1544C20.4873 13.9924 19.7814 13.9491 19.4225 14.0666ZM19.5835 15.1261C19.379 15.2293 19.2656 15.3427 19.1625 15.5471C19.0267 15.8164 19.0214 15.89 19.0214 17.4939C19.0214 19.0979 19.0267 19.1714 19.1625 19.4407C19.3144 19.7419 19.7146 20.0028 20.0249 20.0028C20.3352 20.0028 20.7354 19.7419 20.8874 19.4407C21.0232 19.1714 21.0285 19.0979 21.0285 17.4939C21.0285 15.89 21.0232 15.8164 20.8874 15.5471C20.7354 15.2459 20.3352 14.985 20.0249 14.985C19.936 14.985 19.7374 15.0485 19.5835 15.1261ZM27.612 15.1261C27.4075 15.2293 27.2941 15.3427 27.191 15.5471C27.0552 15.8164 27.0499 15.89 27.0499 17.4939C27.0499 19.0979 27.0552 19.1714 27.191 19.4407C27.3429 19.7419 27.7431 20.0028 28.0534 20.0028C28.3637 20.0028 28.7639 19.7419 28.9159 19.4407C29.0516 19.1714 29.057 19.0979 29.057 17.4939C29.057 15.89 29.0516 15.8164 28.9159 15.5471C28.7639 15.2459 28.3637 14.985 28.0534 14.985C27.9645 14.985 27.7659 15.0485 27.612 15.1261ZM35.6405 15.1261C35.436 15.2293 35.3226 15.3427 35.2195 15.5471C35.0837 15.8164 35.0783 15.89 35.0783 17.4939C35.0783 19.0979 35.0837 19.1714 35.2195 19.4407C35.3714 19.7419 35.7716 20.0028 36.0819 20.0028C36.3922 20.0028 36.7924 19.7419 36.9443 19.4407C37.0801 19.1714 37.0855 19.0979 37.0855 17.4939C37.0855 15.89 37.0801 15.8164 36.9443 15.5471C36.7924 15.2459 36.3922 14.985 36.0819 14.985C35.993 14.985 35.7944 15.0485 35.6405 15.1261ZM15.1322 18.0543C14.702 18.1852 14.3715 18.4615 14.1518 18.8738C14.0463 19.0721 14.0331 19.2834 14.0159 21.0534L13.997 23.0135H42.1099L42.0909 21.0534C42.0737 19.2834 42.0606 19.0721 41.955 18.8738C41.7913 18.5665 41.5501 18.3208 41.2565 18.1624C41.0238 18.0368 40.9009 18.0256 39.5539 18.0072L38.1021 17.9875L38.0793 18.7599C38.0528 19.6576 37.942 19.9649 37.4774 20.4296C37.0673 20.8397 36.7242 20.9736 36.0819 20.9744C35.4468 20.9751 35.0856 20.8288 34.6516 20.3948C34.2173 19.9605 34.1145 19.664 34.0861 18.764L34.0619 17.9957H30.0735L30.0508 18.764C30.0243 19.6573 29.913 19.9655 29.4489 20.4296C29.0388 20.8397 28.6957 20.9736 28.0534 20.9744C27.4183 20.9751 27.0571 20.8288 26.6231 20.3948C26.1888 19.9605 26.0861 19.664 26.0576 18.764L26.0334 17.9957H22.045L22.0223 18.764C21.9959 19.6573 21.8845 19.9655 21.4204 20.4296C21.0103 20.8397 20.6672 20.9736 20.0249 20.9744C19.3898 20.9751 19.0286 20.8288 18.5946 20.3948C18.1603 19.9605 18.0576 19.664 18.0292 18.764L18.0049 17.9957L16.6471 18.0011C15.9004 18.004 15.2186 18.028 15.1322 18.0543ZM17.607 26.6123C17.3533 26.7253 17.0912 27.045 17.0434 27.2997C17.0222 27.4128 17.014 27.9321 17.0252 28.4538C17.0474 29.4865 17.0766 29.5785 17.4775 29.8777C17.64 29.9991 17.7348 30.007 19.0214 30.007C20.3079 30.007 20.4027 29.9991 20.5653 29.8777C20.9819 29.5667 20.9971 29.5103 20.9971 28.2822C20.9971 27.249 20.9871 27.149 20.8678 26.9892C20.5531 26.5676 20.5181 26.5587 19.0954 26.5423C18.1118 26.5308 17.752 26.5478 17.607 26.6123ZM23.6283 26.6123C23.3747 26.7253 23.1126 27.045 23.0648 27.2997C23.0436 27.4128 23.0354 27.9321 23.0466 28.4538C23.0688 29.4865 23.098 29.5785 23.4988 29.8777C23.6614 29.9991 23.7562 30.007 25.0427 30.007C26.3293 30.007 26.4241 29.9991 26.5866 29.8777C27.0033 29.5667 27.0185 29.5103 27.0185 28.2822C27.0185 27.249 27.0085 27.149 26.8892 26.9892C26.5744 26.5676 26.5395 26.5587 25.1167 26.5423C24.1332 26.5308 23.7734 26.5478 23.6283 26.6123ZM29.6497 26.6123C29.3961 26.7253 29.1339 27.045 29.0861 27.2997C29.0649 27.4128 29.0567 27.9321 29.068 28.4538C29.0902 29.4865 29.1193 29.5785 29.5202 29.8777C29.6828 29.9991 29.7775 30.007 31.0641 30.007C32.3507 30.007 32.4454 29.9991 32.608 29.8777C33.0246 29.5667 33.0399 29.5103 33.0399 28.2822C33.0399 27.249 33.0298 27.149 32.9105 26.9892C32.5958 26.5676 32.5608 26.5587 31.1381 26.5423C30.1546 26.5308 29.7948 26.5478 29.6497 26.6123ZM35.6711 26.6123C35.4174 26.7253 35.1553 27.045 35.1075 27.2997C35.0863 27.4128 35.0781 27.9321 35.0893 28.4538C35.1115 29.4865 35.1407 29.5785 35.5415 29.8777C35.7041 29.9991 35.7989 30.007 37.0855 30.007C38.372 30.007 38.4668 29.9991 38.6294 29.8777C39.046 29.5667 39.0612 29.5103 39.0612 28.2822C39.0612 27.249 39.0512 27.149 38.9319 26.9892C38.6171 26.5676 38.5822 26.5587 37.1595 26.5423C36.1759 26.5308 35.8161 26.5478 35.6711 26.6123ZM18.0178 29.0348H20.0249V27.5295H18.0178V29.0348ZM24.0392 29.0348H26.0463V27.5295H24.0392V29.0348ZM30.0605 29.0348H32.0677V27.5295H30.0605V29.0348ZM36.0819 29.0348H38.089V27.5295H36.0819V29.0348ZM17.607 31.1283C17.3533 31.2413 17.0912 31.561 17.0434 31.8157C17.0222 31.9288 17.014 32.4481 17.0252 32.9699C17.0474 34.0025 17.0766 34.0945 17.4775 34.3937C17.64 34.5151 17.7348 34.5231 19.0214 34.5231C20.3079 34.5231 20.4027 34.5151 20.5653 34.3937C20.9819 34.0827 20.9971 34.0264 20.9971 32.7982C20.9971 31.765 20.9871 31.665 20.8678 31.5052C20.5531 31.0836 20.5181 31.0748 19.0954 31.0583C18.1118 31.0469 17.752 31.0638 17.607 31.1283ZM23.6283 31.1283C23.3747 31.2413 23.1126 31.561 23.0648 31.8157C23.0436 31.9288 23.0354 32.4481 23.0466 32.9699C23.0688 34.0025 23.098 34.0945 23.4988 34.3937C23.6614 34.5151 23.7562 34.5231 25.0427 34.5231C26.3293 34.5231 26.4241 34.5151 26.5866 34.3937C27.0033 34.0827 27.0185 34.0264 27.0185 32.7982C27.0185 31.765 27.0085 31.665 26.8892 31.5052C26.5744 31.0836 26.5395 31.0748 25.1167 31.0583C24.1332 31.0469 23.7734 31.0638 23.6283 31.1283ZM29.6497 31.1302C29.397 31.2403 29.1341 31.5601 29.0861 31.8157C29.0649 31.9288 29.0567 32.4481 29.068 32.9699C29.086 33.8115 29.103 33.938 29.2177 34.0915C29.4236 34.3669 29.6485 34.5031 29.9545 34.5376C30.2002 34.5653 30.2613 34.5475 30.4007 34.4081C30.6121 34.1967 30.6153 33.9117 30.4083 33.7049C30.3237 33.6202 30.2108 33.5509 30.1574 33.5509C30.0754 33.5509 30.0605 33.4353 30.0605 32.7982V32.0455H31.161C32.2459 32.0455 32.2637 32.0433 32.4155 31.8915C32.5126 31.7945 32.5694 31.6659 32.5694 31.5438C32.5694 31.4216 32.5126 31.293 32.4155 31.196C32.2625 31.0429 32.2541 31.042 31.0512 31.0444C30.1876 31.0462 29.7863 31.0708 29.6497 31.1302ZM35.7683 31.0796C34.5968 31.295 33.777 31.6057 32.9793 32.1364C31.6176 33.0424 30.6383 34.4402 30.2305 36.0598C30.031 36.8518 30.0361 38.3155 30.2412 39.0976C30.8757 41.5185 32.6309 43.2731 35.0532 43.9081C35.8331 44.1127 37.298 44.1176 38.089 43.9183C40.5003 43.3111 42.3296 41.4818 42.9369 39.0705C43.1291 38.3074 43.1291 36.8228 42.9369 36.0598C42.3343 33.6668 40.4871 31.8113 38.1204 31.2213C37.6337 31.1 36.1453 31.0103 35.7683 31.0796ZM18.0178 33.5509H20.0249V32.0455H18.0178V33.5509ZM24.0392 33.5509H26.0463V32.0455H24.0392V33.5509ZM35.6643 32.1383C33.8718 32.4636 32.3997 33.5751 31.6333 35.1817C30.708 37.1214 30.9567 39.318 32.2927 41.0076C32.9828 41.8804 34.1034 42.6036 35.2351 42.9067C35.9486 43.0978 37.2219 43.0974 37.9322 42.9058C39.5204 42.4774 40.8272 41.4108 41.5169 39.9799C41.9399 39.1023 42.0597 38.5694 42.0597 37.5651C42.0597 36.5598 41.9396 36.0262 41.5161 35.1503C40.4586 32.9634 38.0238 31.7102 35.6643 32.1383ZM37.6058 37.328L35.5814 39.3488L34.6197 38.3942C33.9838 37.763 33.6127 37.4397 33.5243 37.4397C33.1718 37.4397 32.8881 37.7666 32.9675 38.0814C32.9872 38.1597 33.5355 38.753 34.1857 39.3998C35.2587 40.4669 35.388 40.5758 35.5829 40.5758C35.7818 40.5758 35.9669 40.4066 38.0724 38.3012C40.5723 35.8012 40.5306 35.8573 40.1637 35.4904C39.8012 35.128 39.8314 35.1063 37.6058 37.328ZM17.607 35.6444C17.3533 35.7573 17.0912 36.077 17.0434 36.3317C17.0222 36.4448 17.014 36.9642 17.0252 37.4859C17.0474 38.5186 17.0766 38.6105 17.4775 38.9098C17.64 39.0311 17.7348 39.0391 19.0214 39.0391C20.3079 39.0391 20.4027 39.0311 20.5653 38.9098C20.9819 38.5987 20.9971 38.5424 20.9971 37.3142C20.9971 36.2811 20.9871 36.181 20.8678 36.0212C20.5531 35.5996 20.5181 35.5908 19.0954 35.5743C18.1118 35.5629 17.752 35.5798 17.607 35.6444ZM23.6283 35.6444C23.3747 35.7573 23.1126 36.077 23.0648 36.3317C23.0436 36.4448 23.0354 36.9642 23.0466 37.4859C23.0688 38.5186 23.098 38.6105 23.4988 38.9098C23.6614 39.0311 23.7562 39.0391 25.0427 39.0391C26.3293 39.0391 26.4241 39.0311 26.5866 38.9098C27.0033 38.5987 27.0185 38.5424 27.0185 37.3142C27.0185 36.2811 27.0085 36.181 26.8892 36.0212C26.5744 35.5996 26.5395 35.5908 25.1167 35.5743C24.1332 35.5629 23.7734 35.5798 23.6283 35.6444ZM18.0178 38.0669H20.0249V36.5616H18.0178V38.0669ZM24.0392 38.0669H26.0463V36.5616H24.0392V38.0669Z" fill="url(#paint0_linear_3132_3809)"/>
<path d="M43.1068 32.1268H42.1033V36.7683H43.1068V32.1268Z" fill="url(#paint1_linear_3132_3809)"/>
<path d="M27.5516 41.0961V42.0997H32.1931V41.0961H27.5516Z" fill="url(#paint2_linear_3132_3809)"/>
<path d="M29.9978 34.5416V33.5694H31.9422V34.573L29.9978 34.5416Z" fill="url(#paint3_linear_3132_3809)"/>
<defs>
<linearGradient id="paint0_linear_3132_3809" x1="13" y1="14" x2="43.6657" y2="44.8593" gradientUnits="userSpaceOnUse">
<stop stop-color="#0ABD92"/>
<stop offset="1" stop-color="#009DB8"/>
</linearGradient>
<linearGradient id="paint1_linear_3132_3809" x1="13" y1="14" x2="43.6657" y2="44.8593" gradientUnits="userSpaceOnUse">
<stop stop-color="#0ABD92"/>
<stop offset="1" stop-color="#009DB8"/>
</linearGradient>
<linearGradient id="paint2_linear_3132_3809" x1="13" y1="14" x2="43.6657" y2="44.8593" gradientUnits="userSpaceOnUse">
<stop stop-color="#0ABD92"/>
<stop offset="1" stop-color="#009DB8"/>
</linearGradient>
<linearGradient id="paint3_linear_3132_3809" x1="13" y1="14" x2="43.6657" y2="44.8593" gradientUnits="userSpaceOnUse">
<stop stop-color="#0ABD92"/>
<stop offset="1" stop-color="#009DB8"/>
</linearGradient>
</defs>
</svg>

<svg width="57" height="57" fill="none" xmlns="http://www.w3.org/2000/svg"><circle cx="28.5" cy="28.5" r="28" stroke="#009CA1"/><path fill-rule="evenodd" clip-rule="evenodd" d="M19.422 14.067c-.364.12-.794.431-1.024.744-.281.383-.38.781-.38 1.534v.647h-1.436c-1.256 0-1.486.016-1.835.124a2.57 2.57 0 00-1.623 1.623c-.122.391-.124.604-.124 10.798s.002 10.406.124 10.797a2.57 2.57 0 001.623 1.623c.388.12.595.124 7.702.124h7.304l.154-.154a.49.49 0 00.034-.67l-.12-.148-7.36-.031c-7.027-.03-7.37-.037-7.58-.149a1.718 1.718 0 01-.71-.698l-.136-.251-.033-15.963h28.101v8.724l.154.154a.472.472 0 00.696 0l.154-.154V25.94c0-6.608-.004-6.814-.124-7.2a2.57 2.57 0 00-1.623-1.623c-.349-.11-.579-.125-1.828-.125h-1.43l-.023-.768c-.026-.893-.138-1.202-.602-1.666-.41-.41-.753-.544-1.395-.545-.635 0-.996.146-1.43.58-.435.434-.538.73-.566 1.63l-.024.77h-3.988l-.023-.77c-.027-.892-.138-1.2-.602-1.665-.41-.41-.753-.544-1.396-.545-.635 0-.996.146-1.43.58-.434.434-.537.73-.565 1.63l-.025.77h-3.988l-.023-.77c-.02-.658-.044-.812-.175-1.08-.198-.402-.621-.823-.994-.989-.366-.162-1.072-.205-1.43-.087zm.162 1.06a.852.852 0 00-.421.42c-.136.27-.142.343-.142 1.947s.006 1.677.142 1.947c.151.3.552.562.862.562.31 0 .71-.261.862-.562.136-.27.142-.343.142-1.947s-.006-1.678-.142-1.947c-.152-.301-.552-.562-.862-.562-.089 0-.288.064-.441.141zm8.028 0a.852.852 0 00-.421.42c-.136.27-.141.343-.141 1.947s.005 1.677.141 1.947c.152.3.552.562.862.562.31 0 .71-.261.863-.562.136-.27.141-.343.141-1.947s-.005-1.678-.141-1.947c-.152-.301-.552-.562-.863-.562-.088 0-.287.064-.441.141zm8.029 0a.852.852 0 00-.422.42c-.135.27-.14.343-.14 1.947s.005 1.677.14 1.947c.152.3.553.562.863.562.31 0 .71-.261.862-.562.136-.27.142-.343.142-1.947s-.006-1.678-.142-1.947c-.152-.301-.552-.562-.862-.562-.089 0-.288.064-.441.141zm-20.509 2.927a1.62 1.62 0 00-.98.82c-.106.198-.119.41-.136 2.18l-.019 1.96H42.11l-.02-1.96c-.016-1.77-.03-1.982-.135-2.18a1.719 1.719 0 00-.698-.712c-.233-.125-.356-.136-1.703-.155l-1.452-.02-.023.773c-.026.898-.137 1.205-.602 1.67-.41.41-.753.544-1.395.544-.635.001-.996-.145-1.43-.58-.435-.433-.538-.73-.566-1.63l-.024-.768h-3.988l-.023.768c-.027.893-.138 1.201-.602 1.666-.41.41-.753.544-1.396.544-.635.001-.996-.145-1.43-.58-.434-.433-.537-.73-.565-1.63l-.025-.768h-3.988l-.023.768c-.026.893-.137 1.201-.602 1.666-.41.41-.753.544-1.395.544-.635.001-.996-.145-1.43-.58-.435-.433-.537-.73-.566-1.63l-.024-.768-1.358.005c-.747.003-1.428.027-1.515.053zm2.475 8.558c-.254.113-.516.433-.564.688-.02.113-.029.632-.018 1.154.022 1.032.052 1.124.453 1.424.162.121.257.129 1.543.129 1.287 0 1.382-.008 1.544-.13.417-.31.432-.367.432-1.595 0-1.033-.01-1.133-.13-1.293-.314-.421-.349-.43-1.772-.447-.983-.011-1.343.006-1.488.07zm6.021 0c-.253.113-.515.433-.563.688-.021.113-.03.632-.018 1.154.022 1.032.051 1.124.452 1.424.162.121.257.129 1.544.129 1.286 0 1.381-.008 1.544-.13.416-.31.431-.367.431-1.595 0-1.033-.01-1.133-.129-1.293-.315-.421-.35-.43-1.772-.447-.984-.011-1.344.006-1.489.07zm6.022 0c-.254.113-.516.433-.564.688-.021.113-.03.632-.018 1.154.022 1.032.051 1.124.452 1.424.163.121.258.129 1.544.129 1.287 0 1.381-.008 1.544-.13.417-.31.432-.367.432-1.595 0-1.033-.01-1.133-.13-1.293-.314-.421-.35-.43-1.772-.447-.983-.011-1.343.006-1.488.07zm6.021 0c-.254.113-.516.433-.563.688-.022.113-.03.632-.019 1.154.023 1.032.052 1.124.453 1.424.162.121.257.129 1.544.129 1.286 0 1.38-.008 1.543-.13.417-.31.432-.367.432-1.595 0-1.033-.01-1.133-.13-1.293-.314-.421-.349-.43-1.771-.447-.984-.011-1.344.006-1.489.07zm-17.653 2.423h2.007v-1.506h-2.007v1.506zm6.021 0h2.007v-1.506H24.04v1.506zm6.021 0h2.008v-1.506H30.06v1.506zm6.022 0h2.007v-1.506h-2.007v1.506zm-18.475 2.093c-.254.113-.516.433-.564.688-.02.113-.029.632-.018 1.154.022 1.032.052 1.124.453 1.424.162.121.257.13 1.543.13 1.287 0 1.382-.009 1.544-.13.417-.311.432-.368.432-1.596 0-1.033-.01-1.133-.13-1.293-.314-.421-.349-.43-1.772-.447-.983-.011-1.343.006-1.488.07zm6.021 0c-.253.113-.515.433-.563.688-.021.113-.03.632-.018 1.154.022 1.032.051 1.124.452 1.424.162.121.257.13 1.544.13 1.286 0 1.381-.009 1.544-.13.416-.311.431-.368.431-1.596 0-1.033-.01-1.133-.129-1.293-.315-.421-.35-.43-1.772-.447-.984-.011-1.344.006-1.489.07zm6.022.002c-.253.11-.516.43-.564.686-.021.113-.03.632-.018 1.154.018.842.035.968.15 1.122.206.275.43.411.736.446.246.027.307.01.447-.13.211-.211.214-.496.007-.703-.084-.085-.197-.154-.25-.154-.083 0-.098-.116-.098-.753v-.753h1.101c1.085 0 1.103-.002 1.255-.154a.505.505 0 00.153-.347.505.505 0 00-.154-.348c-.152-.153-.16-.154-1.364-.152-.863.002-1.265.027-1.401.086zm6.118-.05c-1.171.215-1.991.526-2.789 1.056a6.648 6.648 0 00-2.748 3.924c-.2.792-.195 2.255.01 3.038.635 2.42 2.39 4.175 4.812 4.81.78.205 2.245.21 3.036.01a6.62 6.62 0 004.848-4.847c.192-.764.192-2.248 0-3.011-.603-2.393-2.45-4.249-4.817-4.839-.486-.121-1.975-.21-2.352-.141zm-17.75 2.47h2.007v-1.505h-2.007v1.506zm6.021 0h2.007v-1.505H24.04v1.506zm11.625-1.412c-1.792.326-3.264 1.437-4.03 3.044-.926 1.94-.677 4.136.659 5.826.69.872 1.81 1.596 2.942 1.899.714.19 1.987.19 2.697-.001 1.588-.429 2.895-1.495 3.585-2.926.423-.878.543-1.41.543-2.415 0-1.005-.12-1.539-.544-2.415-1.057-2.187-3.492-3.44-5.852-3.012zm1.942 5.19l-2.025 2.02-.961-.954c-.636-.631-1.007-.954-1.096-.954-.352 0-.636.327-.556.641.02.079.567.672 1.218 1.319 1.073 1.067 1.202 1.176 1.397 1.176.199 0 .384-.17 2.49-2.275 2.5-2.5 2.458-2.444 2.09-2.81-.362-.363-.332-.385-2.557 1.837zm-19.999-1.684c-.254.113-.516.433-.564.688-.02.113-.029.632-.018 1.154.022 1.033.052 1.125.453 1.424.162.121.257.13 1.543.13 1.287 0 1.382-.009 1.544-.13.417-.311.432-.368.432-1.596 0-1.033-.01-1.133-.13-1.293-.314-.421-.349-.43-1.772-.447-.983-.011-1.343.006-1.488.07zm6.021 0c-.253.113-.515.433-.563.688-.021.113-.03.632-.018 1.154.022 1.033.051 1.125.452 1.424.162.121.257.13 1.544.13 1.286 0 1.381-.009 1.544-.13.416-.311.431-.368.431-1.596 0-1.033-.01-1.133-.129-1.293-.315-.421-.35-.43-1.772-.447-.984-.011-1.344.006-1.489.07zm-5.61 2.423h2.007v-1.505h-2.007v1.505zm6.021 0h2.007v-1.505H24.04v1.505z" fill="url(#paint0_linear_3132_3809)"/><path d="M43.107 32.127h-1.004v4.641h1.004v-4.641z" fill="url(#paint1_linear_3132_3809)"/><path d="M27.552 41.096V42.1h4.641v-1.004h-4.641z" fill="url(#paint2_linear_3132_3809)"/><path d="M29.998 34.542v-.973h1.944v1.004l-1.944-.031z" fill="url(#paint3_linear_3132_3809)"/><defs><linearGradient id="paint0_linear_3132_3809" x1="13" y1="14" x2="43.666" y2="44.859" gradientUnits="userSpaceOnUse"><stop stop-color="#0ABD92"/><stop offset="1" stop-color="#009DB8"/></linearGradient><linearGradient id="paint1_linear_3132_3809" x1="13" y1="14" x2="43.666" y2="44.859" gradientUnits="userSpaceOnUse"><stop stop-color="#0ABD92"/><stop offset="1" stop-color="#009DB8"/></linearGradient><linearGradient id="paint2_linear_3132_3809" x1="13" y1="14" x2="43.666" y2="44.859" gradientUnits="userSpaceOnUse"><stop stop-color="#0ABD92"/><stop offset="1" stop-color="#009DB8"/></linearGradient><linearGradient id="paint3_linear_3132_3809" x1="13" y1="14" x2="43.666" y2="44.859" gradientUnits="userSpaceOnUse"><stop stop-color="#0ABD92"/><stop offset="1" stop-color="#009DB8"/></linearGradient></defs></svg>
